X:128
T:Paddy O’Rafferty. JJo.128
S:J.Jones MS,1801,N.Shrops.
N:A grand jig, six parts in all, of the Morgan Rattler variety.
N:Key sig. given is G, but it appears to be in C. Part 2 has the last 2 bars missing
N:in the MS. I have completed the unresolved line with the part 1&4 ending, but this
N:is not necessarily correct. Part 5 sounds better with A2G rather than AG2 but I have
N:left it unchanged in this transcription. NeilB.
A:N Shropshire
Z:Neil Brookes 2006
M:6/8
L:1/8
Q:3/8=120
K:C%given as G
“_Key sig G in MS”Gee Gdd|Gee dcd|Gee Gdd|cdc cAG|Gee Gdd|Gee dcd|c>eg gec|cdc cAG::!
ecA G3|cdc dcd|ecA G3|cdc cAG|ecAG3|c>dc cAG|c>eg gec|cdc cAG::!
ceg ceg|ceg afd|ceg ceg|c>dc cAG|ceg ceg|ceg gab|c’ge afd|c>dc cAG::!
eGG dGG|eGG dGG|eGG dGG|c>dc cAG|eGG dGG|eGG dGG|ceg gec|c>dc cAG::!
c/d/ec AG2|c/d/ec {e}dcd|c/d/ec AG2|cdc cAG|\
c/d/ec AG2|c/d/ec efg|c’ge c’ge|cdc cAG::!
geg afa|gfed2c|geg abc’|cdc cAG|geg afa|bgb c’ba|gaf efd|cdc cAG:|

